src/icons/security.svg

<svg xmlns="http://www.w3.org/2000/svg" viewBox="0 0 20 20"><path d="M15.7533 1.875H4.24707L3.62207 2.5V7.775C3.62207 14.5094 9.08145 17.6906 9.70332 18.0344H10.3127C10.9377 17.6906 16.3877 14.5094 16.3877 7.775V2.5L15.7533 1.875ZM4.87207 7.775V3.125H9.3752V16.3375C7.8127 15.1937 4.87207 12.4375 4.87207 7.775ZM15.1283 7.775C15.1283 12.4375 12.2033 15.1937 10.6283 16.3375V3.125H15.1283V7.775Z"/></svg>

<svg xmlns="http://www.w3.org/2000/svg" viewBox="0 0 20 20"><path d="M15.753 1.875H4.247l-.625.625v5.275c0 6.734 5.46 9.916 6.081 10.26h.61c.625-.344 6.075-3.526 6.075-10.26V2.5zm-10.88 5.9v-4.65h4.502v13.212c-1.562-1.143-4.503-3.9-4.503-8.562m10.255 0c0 4.663-2.925 7.419-4.5 8.562V3.125h4.5z"/></svg>
